X:1
T:Five in a Bed
C:Andy Anderson
M:C
L:1/8
K:G Major
Bc "A"| dgfe d2 c2 | BABc B2 G2 | ABcA B2 A2 | Bcde d2 Bc | dgfe d2 c2 |\
BABc B2 G2 | ABcA B2 A2 | G2 F2 G4 "B"|| FAAA GBBB | FAAA GBAG |\
FAAA GBBB | FAGF G4 | FAAA GBBB | FAAA GBAG | FAAA GBBB | FAGF G4 Bc |]
